outputs/icons/action/trending_up_sharp.svg

<svg xmlns="http://www.w3.org/2000/svg" width="1200" height="1200" fill="none"><g clip-path="url(#a)"><path fill="#000" d="m800 300 114.5 114.5-244 244-200-200-370.5 371 70.5 70.5 300-300 200 200 315-314.5L1100 600V300z"/></g><defs><clipPath id="a"><path fill="#fff" d="M0 0h1200v1200H0z"/></clipPath></defs></svg>

<svg width="1200" height="1200" viewBox="0 0 1200 1200" fill="none" xmlns="http://www.w3.org/2000/svg"><g clip-path="url(#clip0_117_786)"><path d="M800 300L914.5 414.5L670.5 658.5L470.5 458.5L100 829.5L170.5 900L470.5 600L670.5 800L985.5 485.5L1100 600V300H800Z" fill="#1D1E23"/></g><defs><clipPath id="clip0_117_786"><path width="24" fill="white" d="M0 0H1200V1200H0V0z"/></clipPath></defs></svg>
